mobile/apps/auth/assets/custom-icons/icons/zitadel.svg

<svg xmlns="http://www.w3.org/2000/svg" xml:space="preserve" style="fill-rule:evenodd;clip-rule:evenodd;stroke-linejoin:round;stroke-miterlimit:2" viewBox="0 0 467 467"><path d="M2271.15 0h826.773v708.241H2271.15z" style="fill:none" transform="matrix(.56485 0 0 .65932 -1282.85 0)"/><path d="M1493.5 1056.38V1037h3v24.62l-70.48-41.24 70.48-40.988V1004h-3v-19.392l-61.52 35.782 61.52 35.99Z" style="fill:#fff" transform="matrix(2.8058 -.75181 .75181 2.8058 -4628.699 -1488.911)"/><path d="M212.517 110h-12.125L190 92l-10.392 18h-12.125L190 71l22.517 39Z" style="fill:url(#a)" transform="matrix(-.75181 -2.80581 2.8058 -.75181 -45.336 922.928)"/><path d="M212.517 110h-12.125L190 92l-10.392 18h-12.125L190 71l22.517 39Z" style="fill:url(#b)" transform="matrix(2.8058 .75181 -.75181 2.80581 -143.404 -331.577)"/><path d="M212.517 110h-12.125L190 92l-10.392 18h-12.125L190 71l22.517 39Z" style="fill:url(#c)" transform="matrix(-2.054 2.054 -2.054 -2.054 993.143 212.053)"/><path d="M139.622 117 149 142h-18.756l9.378-25Z" style="fill:url(#d)" transform="matrix(-2.8058 -.75181 .75181 -2.80581 530.819 871.396)"/><path d="M139.622 117 149 142h-18.756l9.378-25Z" style="fill:url(#e)" transform="matrix(-2.054 2.054 2.054 2.054 187.578 -381.151)"/><path d="M139.622 117 149 142h-18.756l9.378-25Z" style="fill:url(#f)" transform="matrix(-.75181 -2.80581 -2.8058 .75181 870.557 528.8)"/><circle cx="1496" cy="1004" r="7" style="fill:#fff" transform="matrix(2.8058 -.75181 .75181 2.8058 -4631.506 -1488.16)"/><circle cx="1496" cy="1004" r="7" style="fill:#fff" transform="matrix(2.8058 -.75181 .75181 2.8058 -4606.692 -1395.572)"/><circle cx="1496" cy="1004" r="7" style="fill:#fff" transform="matrix(2.8058 -.75181 .75181 2.8058 -4590.153 -1333.84)"/><circle cx="1496" cy="1004" r="7" style="fill:#fff" transform="matrix(2.8058 -.75181 .75181 2.8058 -4804.372 -1392.572)"/><circle cx="1496" cy="1004" r="7" style="fill:#fff" transform="matrix(2.8058 -.75181 .75181 2.8058 -4648.045 -1549.892)"/><path d="M1499.26 757.787s-1.89-1.298-2.26-2.587c-.29-1.018-.43-4.538-.46-5.2-.13-2.697 2.67-4.356 2.67-4.356l-9.2.191s3.14-.122 3.45 4.165c.05.661-.23 3.476-.46 5.2-.09 1.247-1.8 2.468-1.8 2.468l8.06.119Z" style="fill:#fff" transform="matrix(2.8058 -.75181 .65784 2.45508 -4377.076 -548.11)"/><path d="M1495 760v-16" style="fill:none" transform="matrix(2.8058 -.75181 .65784 2.45508 -4335.73 -393.792)"/><path d="M1498.27 757.077s-1.56-.617-1.62-2.277c0-1.142-.01-1.519 0-2.784-.03-.682-.06-1.408 0-2.067.13-3.113 1.85-3.793 1.85-3.793l-7.04-.225s1.91.788 2.19 3.899c.06.659.04 1.698 0 2.379a88.86 88.86 0 0 0 0 2.309c.03 1.816-1.07 2.309-1.07 2.309l5.69.25Z" style="fill:#fff" transform="matrix(2.8058 -.75181 .65784 2.45508 -4335.73 -393.792)"/><path d="m1496.17 759.473 59.37-39.459" style="fill:none" transform="matrix(2.8058 -.75181 .65784 2.45508 -4542.367 -446.685)"/><path d="M1500.86 762.056s-1-1.656 2.23-4.6c1.82-1.659 4.24-3.305 6.89-5.201 4.84-3.465 10.7-7.315 16.54-11.206 4.93-3.283 9.86-6.57 14.3-9.369 3.7-2.331 7.03-4.384 9.72-5.88.53-.294 1.06-.471 1.51-.771 2.68-1.772 4.8-.061 4.8-.061l-4.62-8.686s-.24 3.172-2.23 4.715c-.43.336-.85.744-1.33 1.123-2.47 1.933-5.68 4.224-9.28 6.747-4.33 3.031-9.26 6.299-14.2 9.571-5.84 3.876-11.67 7.796-16.7 10.891-2.75 1.694-5.21 3.248-7.36 4.269-3.14 1.488-5.85.019-5.85.019l5.58 8.439Z" style="fill:#fff" transform="matrix(2.8058 -.75181 .65784 2.45508 -4542.367 -446.685)"/><path d="m1496.17 759.473 59.37-39.459" style="fill:none" transform="matrix(2.8058 -.75181 -.65784 -2.45508 -3540.543 3292.16)"/><path d="M1496.1 754.362s1.1 1.245 5.03-.764c2.12-1.089 4.61-2.575 7.36-4.269 5.03-3.095 10.86-7.015 16.7-10.891 4.94-3.272 9.75-6.606 14.08-9.636 3.6-2.523 10.09-6.743 10.54-7.052 2.94-2.02 2.37-3.554 2.37-3.554l3.1 5.956s-1.51-1.247-3.91.529c-.44.325-6.85 4.668-10.55 6.999-4.44 2.799-9.37 6.086-14.3 9.369-5.84 3.891-11.7 7.741-16.54 11.206-2.65 1.896-5.09 3.516-6.89 5.201-3.62 3.385-1.83 5.827-1.83 5.827l-5.16-8.921Z" style="fill:#fff" transform="matrix(2.8058 -.75181 -.65784 -2.45508 -3540.543 3292.16)"/><defs><linearGradient id="a" x1="0" x2="1" y1="0" y2="0" gradientTransform="scale(-160.7235) rotate(-75 -.938 .578)" gradientUnits="userSpaceOnUse"><stop offset="0" style="stop-color:#ff8f00;stop-opacity:1"/><stop offset="1" style="stop-color:#fe00ff;stop-opacity:1"/></linearGradient><linearGradient id="b" x1="0" x2="1" y1="0" y2="0" gradientTransform="scale(160.7235) rotate(-15 4.962 -1.993)" gradientUnits="userSpaceOnUse"><stop offset="0" style="stop-color:#ff8f00;stop-opacity:1"/><stop offset="1" style="stop-color:#fe00ff;stop-opacity:1"/></linearGradient><linearGradient id="c" x1="0" x2="1" y1="0" y2="0" gradientTransform="rotate(-135 173.811 54.311) scale(160.724)" gradientUnits="userSpaceOnUse"><stop offset="0" style="stop-color:#ff8f00;stop-opacity:1"/><stop offset="1" style="stop-color:#fe00ff;stop-opacity:1"/></linearGradient><linearGradient id="d" x1="0" x2="1" y1="0" y2="0" gradientTransform="scale(-160.7235) rotate(-15 -4.103 4.77)" gradientUnits="userSpaceOnUse"><stop offset="0" style="stop-color:#ff8f00;stop-opacity:1"/><stop offset="1" style="stop-color:#fe00ff;stop-opacity:1"/></linearGradient><linearGradient id="e" x1="0" x2="1" y1="0" y2="0" gradientTransform="scale(-160.724 160.724) rotate(45 -1.58 -1.166)" gradientUnits="userSpaceOnUse"><stop offset="0" style="stop-color:#ff8f00;stop-opacity:1"/><stop offset="1" style="stop-color:#fe00ff;stop-opacity:1"/></linearGradient><linearGradient id="f" x1="0" x2="1" y1="0" y2="0" gradientTransform="scale(-160.7235 160.7235) rotate(-75 .592 1.434)" gradientUnits="userSpaceOnUse"><stop offset="0" style="stop-color:#ff8f00;stop-opacity:1"/><stop offset="1" style="stop-color:#fe00ff;stop-opacity:1"/></linearGradient></defs></svg>

<?xml version="1.0" encoding="UTF-8" standalone="no"?>
<!DOCTYPE svg PUBLIC "-//W3C//DTD SVG 1.1//EN" "http://www.w3.org/Graphics/SVG/1.1/DTD/svg11.dtd">
<svg width="100%" height="100%" viewBox="0 0 467 467" version="1.1" xmlns="http://www.w3.org/2000/svg" xmlns:xlink="http://www.w3.org/1999/xlink" xml:space="preserve" xmlns:serif="http://www.serif.com/" style="fill-rule:evenodd;clip-rule:evenodd;stroke-linejoin:round;stroke-miterlimit:2;">
    <g id="zitadel-logo-solo-darkdesign" transform="matrix(0.564847,0,0,0.659318,-1282.85,0)">
        <rect x="2271.15" y="0" width="826.773" height="708.241" style="fill:none;"/>
        <g transform="matrix(4.96737,-1.14029,1.331,4.25561,-5923.46,-2258.26)">
            <path d="M1493.5,1056.38L1493.5,1037L1496.5,1037L1496.5,1061.62L1426.02,1020.38L1496.5,979.392L1496.5,1004L1493.5,1004L1493.5,984.608L1431.98,1020.39L1493.5,1056.38Z" style="fill:white;"/>
        </g>
        <g transform="matrix(31.0036,0,0,15.0393,-397275,-666.457)">
            <g transform="matrix(-0.0429306,-0.282967,0.160219,-0.0758207,12884.5,137.392)">
                <path d="M212.517,110L200.392,110L190,92L179.608,110L167.483,110L190,71L212.517,110Z" style="fill:url(#_Linear1);"/>
            </g>
            <g transform="matrix(0.160219,0.0758207,-0.0429306,0.282967,12878.9,10.8747)">
                <path d="M212.517,110L200.392,110L190,92L179.608,110L167.483,110L190,71L212.517,110Z" style="fill:url(#_Linear2);"/>
            </g>
            <g transform="matrix(-0.117289,0.207146,-0.117289,-0.207146,12943.8,65.7)">
                <path d="M212.517,110L200.392,110L190,92L179.608,110L167.483,110L190,71L212.517,110Z" style="fill:url(#_Linear3);"/>
            </g>
            <g transform="matrix(-0.160219,-0.0758207,0.0429306,-0.282967,12917.4,132.195)">
                <path d="M139.622,117L149,142L130.244,142L139.622,117Z" style="fill:url(#_Linear4);"/>
            </g>
            <g transform="matrix(-0.117289,0.207146,0.117289,0.207146,12897.8,5.87512)">
                <path d="M139.622,117L149,142L130.244,142L139.622,117Z" style="fill:url(#_Linear5);"/>
            </g>
            <g transform="matrix(-0.0429306,-0.282967,-0.160219,0.0758207,12936.8,97.6441)">
                <path d="M139.622,117L149,142L130.244,142L139.622,117Z" style="fill:url(#_Linear6);"/>
            </g>
        </g>
        <g transform="matrix(4.96737,-1.14029,1.331,4.25561,-5928.43,-2257.12)">
            <circle cx="1496" cy="1004" r="7" style="fill:white;"/>
        </g>
        <g transform="matrix(4.96737,-1.14029,1.331,4.25561,-5884.5,-2116.69)">
            <circle cx="1496" cy="1004" r="7" style="fill:white;"/>
        </g>
        <g transform="matrix(4.96737,-1.14029,1.331,4.25561,-5855.22,-2023.06)">
            <circle cx="1496" cy="1004" r="7" style="fill:white;"/>
        </g>
        <g transform="matrix(4.96737,-1.14029,1.331,4.25561,-6234.47,-2112.14)">
            <circle cx="1496" cy="1004" r="7" style="fill:white;"/>
        </g>
        <g transform="matrix(4.96737,-1.14029,1.331,4.25561,-5957.71,-2350.75)">
            <circle cx="1496" cy="1004" r="7" style="fill:white;"/>
        </g>
        <g transform="matrix(4.96737,-1.14029,1.16463,3.72366,-5477.99,-831.33)">
            <path d="M1499.26,757.787C1499.26,757.787 1497.37,756.489 1497,755.2C1496.71,754.182 1496.57,750.662 1496.54,750C1496.41,747.303 1499.21,745.644 1499.21,745.644L1490.01,745.835C1490.01,745.835 1493.15,745.713 1493.46,750C1493.51,750.661 1493.23,753.476 1493,755.2C1492.91,756.447 1491.2,757.668 1491.2,757.668L1499.26,757.787Z" style="fill:white;"/>
        </g>
        <g transform="matrix(4.96737,-1.14029,1.16463,3.72366,-5404.79,-597.271)">
            <path d="M1495,760L1495,744" style="fill:none;"/>
        </g>
        <g transform="matrix(4.96737,-1.14029,1.16463,3.72366,-5404.79,-597.271)">
            <path d="M1498.27,757.077C1498.27,757.077 1496.71,756.46 1496.65,754.8C1496.65,753.658 1496.64,753.281 1496.65,752.016C1496.62,751.334 1496.59,750.608 1496.65,749.949C1496.78,746.836 1498.5,746.156 1498.5,746.156L1491.46,745.931C1491.46,745.931 1493.37,746.719 1493.65,749.83C1493.71,750.489 1493.69,751.528 1493.65,752.209C1493.64,753.331 1493.64,753.413 1493.65,754.518C1493.68,756.334 1492.58,756.827 1492.58,756.827L1498.27,757.077Z" style="fill:white;"/>
        </g>
        <g transform="matrix(4.96737,-1.14029,1.16463,3.72366,-5770.62,-677.495)">
            <path d="M1496.17,759.473L1555.54,720.014" style="fill:none;"/>
        </g>
        <g transform="matrix(4.96737,-1.14029,1.16463,3.72366,-5770.62,-677.495)">
            <path d="M1500.86,762.056C1500.86,762.056 1499.86,760.4 1503.09,757.456C1504.91,755.797 1507.33,754.151 1509.98,752.255C1514.82,748.79 1520.68,744.94 1526.52,741.049C1531.45,737.766 1536.38,734.479 1540.82,731.68C1544.52,729.349 1547.85,727.296 1550.54,725.8C1551.07,725.506 1551.6,725.329 1552.05,725.029C1554.73,723.257 1556.85,724.968 1556.85,724.968L1552.23,716.282C1552.23,716.282 1551.99,719.454 1550,720.997C1549.57,721.333 1549.15,721.741 1548.67,722.12C1546.2,724.053 1542.99,726.344 1539.39,728.867C1535.06,731.898 1530.13,735.166 1525.19,738.438C1519.35,742.314 1513.52,746.234 1508.49,749.329C1505.74,751.023 1503.28,752.577 1501.13,753.598C1497.99,755.086 1495.28,753.617 1495.28,753.617L1500.86,762.056Z" style="fill:white;"/>
        </g>
        <g transform="matrix(4.96737,-1.14029,-1.16463,-3.72366,-3997,4993.28)">
            <path d="M1496.17,759.473L1555.54,720.014" style="fill:none;"/>
        </g>
        <g transform="matrix(4.96737,-1.14029,-1.16463,-3.72366,-3997,4993.28)">
            <path d="M1496.1,754.362C1496.1,754.362 1497.2,755.607 1501.13,753.598C1503.25,752.509 1505.74,751.023 1508.49,749.329C1513.52,746.234 1519.35,742.314 1525.19,738.438C1530.13,735.166 1534.94,731.832 1539.27,728.802C1542.87,726.279 1549.36,722.059 1549.81,721.75C1552.75,719.73 1552.18,718.196 1552.18,718.196L1555.28,724.152C1555.28,724.152 1553.77,722.905 1551.37,724.681C1550.93,725.006 1544.52,729.349 1540.82,731.68C1536.38,734.479 1531.45,737.766 1526.52,741.049C1520.68,744.94 1514.82,748.79 1509.98,752.255C1507.33,754.151 1504.89,755.771 1503.09,757.456C1499.47,760.841 1501.26,763.283 1501.26,763.283L1496.1,754.362Z" style="fill:white;"/>
        </g>
    </g>
    <defs>
        <linearGradient id="_Linear1" x1="0" y1="0" x2="1" y2="0" gradientUnits="userSpaceOnUse" gradientTransform="matrix(-41.5984,155.247,-155.247,-41.5984,201.516,76.8392)"><stop offset="0" style="stop-color:rgb(255,143,0);stop-opacity:1"/><stop offset="1" style="stop-color:rgb(254,0,255);stop-opacity:1"/></linearGradient>
        <linearGradient id="_Linear2" x1="0" y1="0" x2="1" y2="0" gradientUnits="userSpaceOnUse" gradientTransform="matrix(155.247,-41.5984,41.5984,155.247,110.08,195.509)"><stop offset="0" style="stop-color:rgb(255,143,0);stop-opacity:1"/><stop offset="1" style="stop-color:rgb(254,0,255);stop-opacity:1"/></linearGradient>
        <linearGradient id="_Linear3" x1="0" y1="0" x2="1" y2="0" gradientUnits="userSpaceOnUse" gradientTransform="matrix(-113.649,-113.649,113.649,-113.649,258.31,215.618)"><stop offset="0" style="stop-color:rgb(255,143,0);stop-opacity:1"/><stop offset="1" style="stop-color:rgb(254,0,255);stop-opacity:1"/></linearGradient>
        <linearGradient id="_Linear4" x1="0" y1="0" x2="1" y2="0" gradientUnits="userSpaceOnUse" gradientTransform="matrix(-155.247,41.5984,-41.5984,-155.247,220.914,144.546)"><stop offset="0" style="stop-color:rgb(255,143,0);stop-opacity:1"/><stop offset="1" style="stop-color:rgb(254,0,255);stop-opacity:1"/></linearGradient>
        <linearGradient id="_Linear5" x1="0" y1="0" x2="1" y2="0" gradientUnits="userSpaceOnUse" gradientTransform="matrix(-113.649,113.649,113.649,113.649,206.837,124.661)"><stop offset="0" style="stop-color:rgb(255,143,0);stop-opacity:1"/><stop offset="1" style="stop-color:rgb(254,0,255);stop-opacity:1"/></linearGradient>
        <linearGradient id="_Linear6" x1="0" y1="0" x2="1" y2="0" gradientUnits="userSpaceOnUse" gradientTransform="matrix(-41.5984,-155.247,-155.247,41.5984,152.054,262.8)"><stop offset="0" style="stop-color:rgb(255,143,0);stop-opacity:1"/><stop offset="1" style="stop-color:rgb(254,0,255);stop-opacity:1"/></linearGradient>
    </defs>
</svg>
